src/icons/outline/symbols/distribution.svg

<svg width="24" height="24" viewBox="0 0 24 24" fill="none" xmlns="http://www.w3.org/2000/svg">
<g clip-path="url(#clip0_6020_1014)">
<path d="M17.4211 1C15.4465 1 13.8421 2.57 13.8421 4.49C13.8421 6.13 15.0145 7.51 16.5983 7.87C16.2795 10.17 14.2535 11.94 11.7955 11.94H8.35027V7.89C9.96491 7.55 11.1682 6.16 11.1682 4.49C11.1682 2.57 9.56382 1 7.57895 1C5.59407 1 4 2.57 4 4.49C4 6.15 5.20327 7.54 6.80762 7.89V16.12C5.20327 16.47 4 17.86 4 19.52C4 21.44 5.60436 23 7.57895 23C9.55354 23 11.1682 21.44 11.1682 19.52C11.1682 17.85 9.96491 16.46 8.35027 16.12V13.44H11.7955C15.0865 13.44 17.8119 11.01 18.1512 7.9C19.7762 7.57 21 6.17 21 4.49C21 2.57 19.3956 1 17.4211 1ZM5.54265 4.49C5.54265 3.39 6.45796 2.5 7.57895 2.5C8.69994 2.5 9.62553 3.39 9.62553 4.49C9.62553 5.59 8.71022 6.47 7.57895 6.47C6.44767 6.47 5.54265 5.58 5.54265 4.49ZM9.62553 19.52C9.62553 20.61 8.71022 21.5 7.57895 21.5C6.44767 21.5 5.54265 20.61 5.54265 19.52C5.54265 18.43 6.45796 17.54 7.57895 17.54C8.69994 17.54 9.62553 18.43 9.62553 19.52ZM17.4211 6.47C16.3001 6.47 15.3848 5.58 15.3848 4.49C15.3848 3.4 16.3001 2.5 17.4211 2.5C18.542 2.5 19.4573 3.39 19.4573 4.49C19.4573 5.59 18.542 6.47 17.4211 6.47Z" fill="#3C3B44"/>
</g>
<defs>
<clipPath id="clip0_6020_1014">
<rect width="24" height="24" fill="white"/>
</clipPath>
</defs>
</svg>

<svg xmlns="http://www.w3.org/2000/svg" width="24" height="24" fill="none" viewBox="0 0 24 24"><g clip-path="url(#a)"><path fill="currentColor" d="M17.421 1c-1.974 0-3.579 1.57-3.579 3.49 0 1.64 1.172 3.02 2.756 3.38-.319 2.3-2.344 4.07-4.802 4.07H8.35V7.89c1.615-.34 2.818-1.73 2.818-3.4C11.168 2.57 9.564 1 7.58 1S4 2.57 4 4.49c0 1.66 1.203 3.05 2.808 3.4v8.23C5.203 16.47 4 17.86 4 19.52 4 21.44 5.604 23 7.579 23s3.59-1.56 3.59-3.48c0-1.67-1.204-3.06-2.819-3.4v-2.68h3.446c3.29 0 6.016-2.43 6.355-5.54C19.776 7.57 21 6.17 21 4.49 21 2.57 19.396 1 17.421 1M5.543 4.49c0-1.1.915-1.99 2.036-1.99s2.047.89 2.047 1.99-.916 1.98-2.047 1.98-2.036-.89-2.036-1.98m4.083 15.03c0 1.09-.916 1.98-2.047 1.98s-2.036-.89-2.036-1.98.915-1.98 2.036-1.98 2.047.89 2.047 1.98M17.42 6.47c-1.12 0-2.036-.89-2.036-1.98S16.3 2.5 17.42 2.5s2.036.89 2.036 1.99-.915 1.98-2.036 1.98"/></g><defs><clipPath id="a"><path fill="currentColor" d="M0 0h24v24H0z"/></clipPath></defs></svg>
